public/static/img/user/service.svg

<svg width="40" height="40" viewBox="0 0 40 40" fill="none" xmlns="http://www.w3.org/2000/svg">
<circle cx="20" cy="20" r="20" fill="#96B48D"/>
<mask id="mask0_396_11382" style="mask-type:alpha" maskUnits="userSpaceOnUse" x="0" y="0" width="40" height="40">
<circle cx="20" cy="20" r="20" fill="#171717"/>
</mask>
<g mask="url(#mask0_396_11382)">
<path fill-rule="evenodd" clip-rule="evenodd" d="M17.2587 19.373H22.7131V24.7709H17.2587V19.373Z" fill="#FDD9C5"/>
<path fill-rule="evenodd" clip-rule="evenodd" d="M10.3913 26.5254L10.8435 26.6102L11.1826 26.8645L11.437 27.2037L11.5217 27.6558V40.6558L11.437 41.108L11.1826 41.4471L10.8435 41.7015L10.3913 41.7863H8.97826L8.52609 41.7015L8.18696 41.4471L7.93261 41.108L7.84783 40.6558V33.4493L7.67826 32.8841L7.19783 31.7254L7 30.5667V28.7863L7.08478 28.1928L7.31087 27.6558L7.65 27.1754L8.13043 26.8363L8.66739 26.6102L10.3913 26.5254ZM30.7391 26.5254L31.3326 26.6102L31.8696 26.8363L32.3217 27.1754L32.6609 27.5993L32.9152 28.1363L33 28.7297L32.9435 31.1319L32.8304 31.6689L32.35 32.771L32.1522 33.8732V40.6558L32.0674 41.0797L31.8413 41.4471L31.5022 41.6732L31.0217 41.7863H29.6087L29.1848 41.7015L28.8174 41.4754L28.5913 41.1363L28.4783 40.6558V27.6558L28.563 27.2319L28.7891 26.8645L29.1283 26.6384L29.5522 26.5254H30.7391Z" fill="#3F6534"/>
<path fill-rule="evenodd" clip-rule="evenodd" d="M11.5217 33.8711V40.6537L11.437 41.1059L11.1826 41.445L10.8435 41.6994L10.3913 41.7841H8.97826L8.52608 41.6994L8.18695 41.445L7.93261 41.1059L7.84782 40.6537V33.8711H11.5217ZM32.1522 33.8711V40.6537L32.0674 41.0776L31.8413 41.445L31.5022 41.6711L31.0217 41.7841H29.6087L29.1848 41.6994L28.8174 41.4733L28.5913 41.1341L28.4783 40.6537V33.8711H32.1522Z" fill="#FFE6D9"/>
<path fill-rule="evenodd" clip-rule="evenodd" d="M19.3782 24.83L25.1435 24.7734L25.4826 26.5256L25.6522 27.9104L25.6239 29.0691L25.4543 30.0017L25.1717 30.7647L24.7478 31.3865L24.2391 31.8952L23.5608 32.2908L22.7695 32.6017L21.7522 32.7713L20.5087 32.8278L18.9826 32.6865L17.1456 32.3191L16.3826 32.0647L15.7608 31.6974L15.2804 31.2452L14.8848 30.6517L14.6022 29.9169L14.4326 29.0126L14.4043 27.8821L14.5456 26.5256L14.8565 24.7734L19.3782 24.83Z" fill="#3F6534"/>
<path fill-rule="evenodd" clip-rule="evenodd" d="M20.65 24.8016L22.6 22.9363L22.7978 22.8516L22.9957 22.9081L25.1435 24.745L23.9848 25.9037L23.1652 26.4972L22.487 26.8929L21.9218 27.0907L21.4131 27.1472L21.2435 26.8646L20.65 24.9994H19.35L18.7283 26.8646L18.5587 27.1472L18.0783 27.0907L17.4848 26.8929L16.8348 26.4972L16.0152 25.9037L14.8565 24.745L17.0044 22.9081L17.1739 22.8516L17.4 22.9363L19.35 24.8016H20.65Z" fill="#748D6C"/>
<path fill-rule="evenodd" clip-rule="evenodd" d="M25.1152 24.8262L30.0609 26.1262L30.4283 26.3805L30.6544 26.7196L30.7674 27.1718L30.3152 31.6088L30.1739 34.6044L30.0891 35.3957L29.7217 36.4979L29.0435 38.0523L27.9413 40.1718L27.2913 40.2849L23.0522 40.4262H16.9478L13.0478 40.3131L12.087 40.1718L10.9565 38.0523L10.2783 36.4979L9.93914 35.3957L9.8261 34.6044L9.68479 31.3827L9.26088 27.1718L9.34566 26.7196L9.60001 26.3805L9.93914 26.1262L14.9131 24.8262L15.3935 25.6175L15.9304 26.2675L16.5522 26.8044L17.2587 27.2283L18.05 27.5392L18.9544 27.737L20 27.8218L21.0457 27.737L21.95 27.5675L22.7413 27.2566L23.4196 26.8327L24.0413 26.324L24.5783 25.7023L25.1152 24.8262Z" fill="#3F6534"/>
<path fill-rule="evenodd" clip-rule="evenodd" d="M26.7825 12.3914L26.726 13.3523L26.5282 14.2849L26.2173 15.1327L25.8217 15.9523L25.313 16.7153L24.7195 17.3936L24.0412 17.987L23.2782 18.4957L22.4586 18.8914L21.6108 19.2023L20.6782 19.4001L19.7173 19.4566L18.7564 19.4001L17.8238 19.2023L16.976 18.8914L16.1564 18.4957L15.3934 17.987L14.7151 17.3936L14.1217 16.7153L13.613 15.9523L13.2173 15.1327L12.9064 14.2849L12.7086 13.3523L12.6521 12.3914L12.7086 11.4305L12.9064 10.4979L13.2173 9.65008L13.613 8.83052L14.1217 8.06748L14.7151 7.38921L15.3934 6.79574L16.1564 6.28704L16.976 5.89139L17.8238 5.58052L18.7564 5.38269L19.7173 5.32617L20.6782 5.38269L21.6108 5.58052L22.4586 5.89139L23.2782 6.28704L24.0412 6.79574L24.7195 7.38921L25.313 8.06748L25.8217 8.83052L26.2173 9.65008L26.5282 10.4979L26.726 11.4305L26.7825 12.3914Z" fill="#372727"/>
<path fill-rule="evenodd" clip-rule="evenodd" d="M13.9239 14.0879L14.5739 14.1727L15.1392 14.427L15.6196 14.7944L15.987 15.2748L16.2413 15.8401L16.3261 16.4901L16.2413 17.1401L15.987 17.7053L15.6196 18.1857L15.1392 18.5531L14.5739 18.8075L13.9239 18.8922L13.2739 18.8075L12.7087 18.5531L12.2283 18.1857L11.8609 17.7053L11.6066 17.1401L11.5218 16.4901L11.6066 15.8401L11.8609 15.2748L12.2283 14.7944L12.7087 14.427L13.2739 14.1727L13.9239 14.0879Z" fill="#372727"/>
<path fill-rule="evenodd" clip-rule="evenodd" d="M15.7044 12.8477V15.702H13.9805L13.5283 15.589L13.1892 15.3629L12.9348 14.9955L12.85 14.5716L12.9348 13.5259L13.1892 13.1868L13.5283 12.9324L13.9805 12.8477H15.7044ZM26.0196 12.8477L26.4435 12.9324L26.8109 13.1585L27.037 13.4977L27.15 13.9781L27.0653 14.9955L26.8392 15.3346L26.5 15.589L26.0196 15.702H24.2957V12.8477H26.0196Z" fill="#FBBC9A"/>
<path fill-rule="evenodd" clip-rule="evenodd" d="M19.4349 21.661L18.8697 21.5479L18.1914 21.237L16.8632 20.3044L15.3088 18.7783L14.9979 18.1283L14.8566 16.8283V9.73487L14.9414 9.28269L15.1958 8.9153L15.5632 8.68922L15.9871 8.57617H24.0131L24.4371 8.66095L24.8045 8.9153L25.0305 9.25443L25.1436 9.73487V16.8283L25.1153 17.5914L24.861 18.524L24.2958 19.2305L23.2218 20.2196L21.9218 21.1523L21.2718 21.4914L20.7066 21.661H19.4349Z" fill="#FFE6D9"/>
<path fill-rule="evenodd" clip-rule="evenodd" d="M27.0652 9.99006L26.9804 10.6401L26.7261 11.2053L26.3587 11.6857L25.8783 12.0531L25.313 12.3075L24.663 12.3922L24.013 12.3075L23.4478 12.0531L22.9674 11.6857L22.6 11.2053L22.3456 10.6401L22.2609 9.99006L22.3456 9.34006L22.6 8.77485L22.9674 8.29441L23.4478 7.92702L24.013 7.67267L24.663 7.58789L25.313 7.67267L25.8783 7.92702L26.3587 8.29441L26.7261 8.77485L26.9804 9.34006L27.0652 9.99006Z" fill="#372727"/>
<path fill-rule="evenodd" clip-rule="evenodd" d="M19.7174 6.45703L18.8696 6.51355L17.287 6.93747L16.5804 7.30486L15.7043 7.9266L14.9696 8.66138L14.3478 9.53747L13.9804 10.244L13.5565 11.8266L13.5 12.6744L14.6304 12.7027L15.6478 12.5331L16.6087 12.2222L17.2587 11.8831L17.8522 11.4592L18.3891 10.894L18.8413 10.2157L19.2087 9.5092L19.463 8.66138L19.6326 7.64399L19.7174 6.45703Z" fill="#372727"/>
<path fill-rule="evenodd" clip-rule="evenodd" d="M25.087 7.58857L24.8609 8.77553L24.2957 9.76466L23.4196 10.5277L22.8826 10.7538L21.6957 10.9799L20.5087 10.7538L19.9717 10.5277L19.0957 9.76466L18.5304 8.77553L18.3044 7.58857L18.5304 6.40161L19.0957 5.41248L19.9717 4.64944L20.5087 4.42335L21.6957 4.19727L22.8826 4.42335L23.4196 4.64944L24.2957 5.41248L24.8609 6.40161L25.087 7.58857Z" fill="#372727"/>
<path fill-rule="evenodd" clip-rule="evenodd" d="M18.2478 18.0176H21.6673L21.8651 18.1024L21.9499 18.385L21.7238 18.8654L21.4412 19.2328L21.0456 19.4871L20.5651 19.6284L19.9717 19.7132L19.3499 19.6284L18.8695 19.4871L18.4738 19.2328L18.1912 18.8654L17.9651 18.385L17.9934 18.1871L18.2478 18.0176Z" fill="#D58F8F"/>
<path fill-rule="evenodd" clip-rule="evenodd" d="M19.9717 18.9492L20.876 19.0057L21.4695 19.2036L21.0738 19.4579L20.5934 19.6275L19.9717 19.7123L19.3217 19.6275L18.8412 19.4579L18.4456 19.2036L19.0391 19.0057L19.9717 18.9492Z" fill="#DA6767"/>
<path d="M13.7261 14.6543L13.7827 9.59565L13.9522 8.80435L14.574 7.3913L15.1957 6.54348L15.9587 5.83696L16.8348 5.24348L18.3044 4.62174L20 4.42391L21.6957 4.62174L23.1653 5.24348L24.0413 5.83696L24.8044 6.54348L25.4261 7.3913L26.0479 8.80435L26.2174 9.59565L26.274 14.6543H26.7261L26.6413 9.53913L26.4718 8.6913L25.7935 7.16522L24.7479 5.86522L23.3913 4.87609L21.7805 4.22609L20.9327 4.05652L20 4L19.0674 4.05652L18.2196 4.22609L16.6087 4.87609L15.2522 5.86522L14.2066 7.16522L13.5283 8.6913L13.3587 9.53913L13.3022 10.4152V14.6543H13.7261Z" fill="#111B31"/>
<path d="M20 22.284L21.6391 22.0579L23.0804 21.4644L23.9283 20.8427L24.6348 20.1361L25.2565 19.2883L25.85 17.847L26.0196 17.0557L26.0761 11.9688H26.3587L26.3022 17.084L26.1326 17.9035L25.4826 19.4296L24.4935 20.7014L23.2217 21.6905L21.6957 22.3405L20.8761 22.5101L20 22.5666V22.284Z" fill="#111B31"/>
<path fill-rule="evenodd" clip-rule="evenodd" d="M19.576 22.002H20.7064L21.0173 22.115L21.1021 22.2563L21.1304 22.7085L21.1021 22.878L20.876 23.1041L19.576 23.1324L19.2651 23.0193L19.1521 22.7085L19.1804 22.2563L19.4064 22.0302L19.576 22.002Z" fill="#111B31"/>
<path fill-rule="evenodd" clip-rule="evenodd" d="M26.2173 11.2617H27.2064L27.9978 11.4595L28.563 12.0248L28.7043 12.3922L28.7608 12.8161L28.7043 15.2182L28.3086 15.8965L27.6304 16.2922L26.2173 16.3487L25.9912 16.2922L25.7086 16.0095L25.6521 11.8269L25.8217 11.4313L26.2173 11.2617Z" fill="#111B31"/>
<path fill-rule="evenodd" clip-rule="evenodd" d="M13.7826 11.2617H12.7935L12.0022 11.4595L11.4369 12.0248L11.2956 12.3922L11.2391 12.8161L11.2956 15.2182L11.6913 15.8965L12.3696 16.2922L13.7826 16.3487L14.0087 16.2922L14.2913 16.0095L14.3478 11.8269L14.1783 11.4313L13.7826 11.2617Z" fill="#111B31"/>
<path fill-rule="evenodd" clip-rule="evenodd" d="M13.2173 12.1113H13.6412V15.22H13.2173V12.1113Z" fill="white" fill-opacity="0.3"/>
<path fill-rule="evenodd" clip-rule="evenodd" d="M26.2173 12.1113H26.6412V15.22H26.2173V12.1113Z" fill="white" fill-opacity="0.3"/>
<path fill-rule="evenodd" clip-rule="evenodd" d="M23.3912 31.8926H28.7608V33.3056H23.3912V31.8926Z" fill="#00A609"/>
<path d="M20.1412 25.5625L20.1977 25.7321L22.2608 25.9864L22.5999 26.2408L22.713 26.6364L22.289 27.6538L21.9782 27.9364L21.5825 27.9082L20.6782 27.1168L22.0347 30.819L22.0064 30.9603L21.8651 31.0451L20.6782 31.356L20.4238 31.2429L19.8869 27.8234L19.0108 34.4929L18.8695 34.6342L17.4282 34.3234L17.2586 34.069L19.2651 27.0886L18.4456 27.9082L18.0782 27.9647L17.739 27.7103L17.2869 26.9473L17.2303 26.5234L17.4282 26.1842L17.6543 26.0429L20.1412 25.5625Z" fill="#111B31"/>
<path d="M19.3217 26.0699L19.4065 26.3808L19.6326 26.6351L19.9717 26.7199L20.2826 26.6351L20.5087 26.3808L20.5935 26.0699L20.5087 25.7591L20.2826 25.5047L19.9717 25.4199L19.6326 25.5047L19.4065 25.7591L19.3217 26.0699Z" fill="white"/>
<circle cx="17.7391" cy="14.3699" r="0.565217" fill="#111B31"/>
<circle cx="22.2609" cy="14.3699" r="0.565217" fill="#111B31"/>
</g>
</svg>

<svg width="40" height="40" fill="none" xmlns="http://www.w3.org/2000/svg"><circle cx="20" cy="20" r="20" fill="#96B48D"/><mask id="a" style="mask-type:alpha" maskUnits="userSpaceOnUse" x="0" y="0" width="40" height="40"><circle cx="20" cy="20" r="20" fill="#171717"/></mask><g mask="url(#a)"><path fill-rule="evenodd" clip-rule="evenodd" d="M17.259 19.373h5.454v5.398H17.26v-5.398Z" fill="#FDD9C5"/><path fill-rule="evenodd" clip-rule="evenodd" d="m10.391 26.525.453.085.339.255.254.339.085.452v13l-.085.452-.254.34-.34.254-.452.084H8.978l-.452-.084-.339-.255-.254-.339-.085-.452v-7.207l-.17-.565-.48-1.159L7 30.567v-1.78l.085-.594.226-.537.339-.48.48-.34.537-.226 1.724-.085Zm20.348 0 .594.085.537.226.452.34.339.423.254.537.085.594-.056 2.402-.114.537-.48 1.102-.198 1.102v6.783l-.085.424-.226.367-.339.226-.48.113h-1.413l-.424-.084-.368-.227-.226-.339-.113-.48v-13l.085-.424.226-.367.34-.227.423-.113h1.187Z" fill="#3F6534"/><path fill-rule="evenodd" clip-rule="evenodd" d="M11.522 33.871v6.783l-.085.452-.254.339-.34.254-.452.085H8.978l-.452-.085-.34-.254-.253-.34-.085-.451V33.87h3.674Zm20.63 0v6.783l-.085.424-.226.367-.339.226-.48.113h-1.413l-.424-.085-.368-.226-.226-.339-.113-.48V33.87h3.674Z" fill="#FFE6D9"/><path fill-rule="evenodd" clip-rule="evenodd" d="m19.378 24.83 5.765-.057.34 1.753.17 1.384-.03 1.16-.169.932-.282.763-.424.622-.509.508-.678.396-.791.31-1.018.17-1.243.057-1.526-.142-1.837-.367-.763-.254-.622-.368-.48-.452-.396-.593-.283-.735-.17-.904-.028-1.13.142-1.357.31-1.753 4.522.057Z" fill="#3F6534"/><path fill-rule="evenodd" clip-rule="evenodd" d="m20.65 24.802 1.95-1.866.198-.084.198.056 2.148 1.837-1.16 1.159-.819.593-.678.396-.565.198-.509.056-.17-.282-.593-1.866h-1.3l-.622 1.866-.17.282-.48-.056-.593-.198-.65-.396-.82-.593-1.159-1.159 2.148-1.837.17-.056.226.084 1.95 1.866h1.3Z" fill="#748D6C"/><path fill-rule="evenodd" clip-rule="evenodd" d="m25.115 24.826 4.946 1.3.367.255.226.339.113.452-.452 4.437-.141 2.995-.085.792-.367 1.102-.678 1.554-1.103 2.12-.65.113-4.239.141h-6.104l-3.9-.113-.961-.141-1.13-2.12-.679-1.554-.339-1.102-.113-.792-.141-3.221-.424-4.211.085-.452.254-.34.34-.254 4.973-1.3.48.791.537.65.622.537.707.424.791.311.904.198 1.046.085 1.046-.085.904-.17.791-.31.679-.424.621-.509.537-.622.537-.876Z" fill="#3F6534"/><path fill-rule="evenodd" clip-rule="evenodd" d="m26.782 12.391-.056.961-.198.933-.31.848-.396.82-.509.762-.593.679-.679.593-.763.509-.82.395-.847.311-.933.198-.96.057-.962-.057-.932-.198-.848-.31-.82-.396-.763-.509-.678-.593-.593-.679-.509-.763-.396-.82-.31-.847-.198-.933-.057-.96.057-.961.197-.933.311-.848.396-.82.509-.763.593-.678.678-.593.763-.509.82-.396.848-.31.932-.198.961-.057.961.057.933.198.848.31.82.396.762.509.678.593.594.678.509.764.395.82.311.847.198.933.056.96Z" fill="#372727"/><path fill-rule="evenodd" clip-rule="evenodd" d="m13.924 14.088.65.085.565.254.48.367.368.48.254.566.085.65-.085.65-.254.565-.367.48-.48.368-.566.255-.65.084-.65-.084-.565-.255-.48-.367-.368-.48-.254-.566-.085-.65.085-.65.254-.565.367-.48.48-.368.566-.254.65-.085Z" fill="#372727"/><path fill-rule="evenodd" clip-rule="evenodd" d="M15.704 12.848v2.854H13.98l-.452-.113-.339-.226-.254-.367-.085-.424.085-1.046.254-.34.34-.254.451-.084h1.724Zm10.316 0 .424.084.367.226.226.34.113.48-.085 1.018-.226.339-.339.254-.48.113h-1.724v-2.854h1.724Z" fill="#FBBC9A"/><path fill-rule="evenodd" clip-rule="evenodd" d="m19.435 21.661-.565-.113-.679-.311-1.328-.933-1.554-1.526-.311-.65-.141-1.3V9.735l.084-.452.255-.368.367-.226.424-.113h8.026l.424.085.367.254.227.34.113.48v7.093l-.029.763-.254.933-.565.706-1.074.99-1.3.932-.65.34-.565.169h-1.272Z" fill="#FFE6D9"/><path fill-rule="evenodd" clip-rule="evenodd" d="m27.065 9.99-.085.65-.254.565-.367.48-.48.368-.566.254-.65.085-.65-.085-.565-.254-.48-.367-.368-.48-.254-.566-.085-.65.085-.65.254-.565.367-.48.48-.368.566-.254.65-.085.65.085.565.254.48.367.368.48.254.566.085.65Zm-7.348-3.533-.847.057-1.583.423-.707.368-.876.622-.734.734-.622.876-.368.707-.424 1.583-.056.847 1.13.029 1.018-.17.96-.31.65-.34.594-.424.537-.565.452-.678.368-.707.254-.848.17-1.017.084-1.187Z" fill="#372727"/><path fill-rule="evenodd" clip-rule="evenodd" d="m25.087 7.589-.226 1.187-.565.989-.876.763-.537.226-1.187.226-1.187-.226-.537-.226-.876-.763-.566-.99-.226-1.186.226-1.187.566-.99.876-.763.537-.226 1.187-.226 1.187.226.537.226.876.763.565.99.226 1.187Z" fill="#372727"/><path fill-rule="evenodd" clip-rule="evenodd" d="M18.248 18.018h3.42l.197.084.085.283-.226.48-.283.368-.395.254-.48.141-.594.085-.622-.085-.48-.14-.396-.255-.283-.368-.226-.48.028-.198.255-.17Z" fill="#D58F8F"/><path fill-rule="evenodd" clip-rule="evenodd" d="m19.972 18.95.904.056.593.198-.395.254-.48.17-.622.084-.65-.084-.48-.17-.396-.254.593-.198.933-.057Z" fill="#DA6767"/><path d="m13.726 14.654.057-5.058.17-.792.621-1.413.622-.848.763-.706.876-.594 1.47-.621L20 4.424l1.696.198 1.47.621.875.594.763.706.622.848.622 1.413.17.792.056 5.058h.452l-.085-5.115-.17-.848-.677-1.526-1.046-1.3-1.357-.989-1.61-.65-.848-.17L20 4l-.933.057-.847.17-1.611.65-1.357.988-1.045 1.3-.679 1.526-.17.848-.056.876v4.24h.424Z" fill="#111B31"/><path d="m20 22.284 1.64-.226 1.44-.594.848-.621.707-.707.621-.848.594-1.441.17-.791.056-5.087h.283l-.057 5.115-.17.82-.65 1.526-.988 1.271-1.272.99-1.526.65-.82.17-.876.056v-.283Z" fill="#111B31"/><path fill-rule="evenodd" clip-rule="evenodd" d="M19.576 22.002h1.13l.311.113.085.141.028.453-.028.169-.226.226-1.3.028-.31-.113-.114-.31.028-.453.226-.226.17-.028Zm6.641-10.74h.99l.79.197.566.566.141.367.057.424-.057 2.402-.395.678-.679.396-1.413.057-.226-.057-.282-.283-.057-4.182.17-.396.395-.17Zm-12.434 0h-.99l-.79.197-.566.566-.141.367-.057.424.057 2.402.395.678.679.396 1.413.057.226-.057.282-.283.057-4.182-.17-.396-.395-.17Z" fill="#111B31"/><path fill-rule="evenodd" clip-rule="evenodd" d="M13.217 12.111h.424v3.109h-.424v-3.109Zm13 0h.424v3.109h-.424v-3.109Z" fill="#fff" fill-opacity=".3"/><path fill-rule="evenodd" clip-rule="evenodd" d="M23.391 31.893h5.37v1.413h-5.37v-1.413Z" fill="#00A609"/><path d="m20.141 25.563.057.17 2.063.253.339.255.113.395-.424 1.018-.31.282-.396-.028-.905-.791 1.357 3.702-.029.141-.14.085-1.188.311-.254-.113-.537-3.42-.876 6.67-.142.141-1.44-.31-.17-.255 2.006-6.98-.82.82-.367.056-.339-.255-.452-.763-.057-.424.198-.339.226-.141 2.487-.48Z" fill="#111B31"/><path d="m19.322 26.07.085.31.226.255.339.085.31-.085.227-.254.084-.311-.084-.31-.226-.255-.311-.085-.34.085-.226.254-.084.31Z" fill="#fff"/><circle cx="17.739" cy="14.37" r=".565" fill="#111B31"/><circle cx="22.261" cy="14.37" r=".565" fill="#111B31"/></g></svg>
